src/core/app-switcher/app-avatar/icons/lettings-bdm.svg

<svg width="40" height="40" viewBox="0 0 40 40" fill="none" xmlns="http://www.w3.org/2000/svg">
<path d="M0 8C0 3.58172 3.58172 0 8 0H32C36.4183 0 40 3.58172 40 8V32C40 36.4183 36.4183 40 32 40H8C3.58172 40 0 36.4183 0 32V8Z" fill="#ECF3FF"/>
<path d="M31.1344 8.08337C24.4459 8.08337 13.4934 13.5694 19.8114 31.3534H21.2674C21.2674 31.3534 20.2339 27.6354 20.0584 25.0614C30.9784 22.1169 31.5114 12.6594 31.1344 8.08337Z" fill="#4C56F3"/>
<path d="M16.9059 14.7719C14.1629 12.0874 9.19041 12.7959 9.19041 12.7959C9.06041 15.8444 9.17741 23.1309 17.2309 26.4459C15.0469 19.2634 16.9059 14.7719 16.9059 14.7719Z" fill="#4C56F3"/>
</svg>

<svg xmlns="http://www.w3.org/2000/svg" width="40" height="40" fill="none" viewBox="0 0 40 40">
  <path fill="#ECF3FF" d="M0 8a8 8 0 0 1 8-8h24a8 8 0 0 1 8 8v24a8 8 0 0 1-8 8H8a8 8 0 0 1-8-8V8Z"/>
  <path fill="#4C56F3" d="M31.134 8.083c-6.688 0-17.64 5.486-11.323 23.27h1.456s-1.033-3.718-1.209-6.292c10.92-2.944 11.453-12.402 11.076-16.978Z"/>
  <path fill="#4C56F3" d="M16.906 14.772c-2.743-2.685-7.716-1.976-7.716-1.976-.13 3.048-.013 10.335 8.04 13.65-2.183-7.183-.324-11.674-.324-11.674Z"/>
</svg>
